Newaita-dark/apps/32/com.github.torikulhabib.mindi.svg

<svg height="32pt" viewBox="0 0 32 32" width="32pt" xmlns="http://www.w3.org/2000/svg" xmlns:xlink="http://www.w3.org/1999/xlink"><linearGradient id="a"><stop offset="0" stop-opacity=".313725"/><stop offset=".222222" stop-opacity=".27451"/><stop offset="1" stop-opacity="0"/></linearGradient><radialGradient id="b" cx="450.90894" cy="189.57936" gradientTransform="matrix(.00000017 -.0781325 -.140638 -.0000001 33.277288 63.595334)" gradientUnits="userSpaceOnUse" r="21.166656" xlink:href="#a"/><radialGradient id="c" cx="450.90894" cy="189.57936" gradientTransform="matrix(-.00000017 .0781325 .140638 .0000001 -19.385332 -7.527479)" gradientUnits="userSpaceOnUse" r="21.166656" xlink:href="#a"/><radialGradient id="d" cx="450.90894" cy="189.57936" gradientTransform="matrix(-.00000017 -.0781325 .140638 -.0000001 -19.385332 63.595334)" gradientUnits="userSpaceOnUse" r="21.166656" xlink:href="#a"/><radialGradient id="e" cx="450.90894" cy="189.57936" gradientTransform="matrix(.00000017 .0781325 -.140638 .0000001 33.277286 -7.527479)" gradientUnits="userSpaceOnUse" r="21.166656" xlink:href="#a"/><linearGradient id="f" gradientUnits="userSpaceOnUse" x1="15.876524" x2="15.876524" y1="28.033934" y2="2.89610412498"><stop offset="0" stop-color="#9ccc65"/><stop offset="1" stop-color="#aed581"/></linearGradient><linearGradient id="g" gradientUnits="userSpaceOnUse" x1="12.78738343595" x2="12.78738343595" y1="21.97313438507" y2="10.11518372193"><stop offset="0" stop-color="#424242"/><stop offset="1" stop-color="#616161"/></linearGradient><path d="m6.945312 28.035156h2.648438v-1.324218h-2.648438zm0 0" fill="url(#b)"/><path d="m6.945312 28.035156h-2.644531v1.320313h2.644531zm0 0" fill="url(#c)"/><path d="m6.945312 28.035156h-2.644531v-1.324218h2.644531zm0 0" fill="url(#d)"/><path d="m6.945312 28.035156h2.648438v1.320313h-2.648438zm0 0" fill="url(#e)"/><path d="m7.28125 2.894531c-.085938 0-.171875.007813-.257812.015625-.015626.003906-.027344.003906-.042969.007813-.003907 0-.011719 0-.019531.003906-.003907 0-.011719 0-.019532.003906-.859375.144531-1.527344.839844-1.632812 1.710938-.003906.015625-.003906.027343-.007813.042969-.007812.082031-.011719.167968-.007812.25v21.121093.011719c-.011719.351562.074219.714844.265625 1.042969.550781.953125 1.757812 1.277343 2.710937.726562l18.332031-10.582031c.648438-.375 1.007813-1.054688.996094-1.753906.011719-.695313-.347656-1.375-.996094-1.75l-18.253906-10.539063c-.214844-.136719-.464844-.234375-.730468-.28125-.011719-.003906-.027344-.003906-.042969-.007812-.097657-.015625-.195313-.023438-.292969-.023438zm0 0" fill="url(#f)"/><path d="m7.28125 2.894531c-.085938 0-.171875.007813-.257812.015625-.015626.003906-.027344.003906-.042969.007813-.003907 0-.011719 0-.019531.003906-.003907 0-.011719 0-.019532.003906-.859375.144531-1.527344.839844-1.632812 1.710938-.003906.015625-.003906.027343-.007813.042969-.007812.082031-.011719.167968-.007812.25v.25c0-.058594.003906-.113282.007812-.167969.003907-.015625.003907-.027344.007813-.042969.105468-.875.773437-1.566406 1.632812-1.714844h.019532c.007812-.003906.015624-.003906.019531-.003906.015625-.003906.027343-.003906.042969-.007812.085937-.011719.171874-.015626.257812-.015626.097656 0 .195312.007813.292969.023438.015625 0 .03125.003906.042969.007812.265624.042969.515624.140626.730468.28125l18.253906 10.539063c.597657.34375.949219.949219.992188 1.585937 0-.054687.003906-.109374.003906-.167968.011719-.695313-.347656-1.375-.996094-1.75l-18.253906-10.539063c-.214844-.136719-.464844-.234375-.730468-.28125-.011719-.003906-.027344-.003906-.042969-.007812-.097657-.015625-.195313-.023438-.292969-.023438zm-1.988281 23.183594v.070313zm0 0" fill="#fff" fill-opacity=".392157"/><path d="m5.292969 4.847656v.082032zm22.285156 10.351563c-.078125.585937-.421875 1.132812-.976563 1.453125l-18.332031 10.582031c-.953125.550781-2.160156.226563-2.710937-.726563-.175782-.300781-.261719-.632812-.265625-.957031v.5.011719c-.011719.351562.074219.714844.265625 1.042969.550781.953125 1.757812 1.277343 2.710937.726562l18.332031-10.582031c.648438-.375 1.007813-1.054688.996094-1.753906 0-.097656-.003906-.199219-.019531-.296875zm-22.285156 10.253906v.027344c0-.003907 0-.007813 0-.015625 0-.003906 0-.007813 0-.011719zm0 0" fill-opacity=".235294"/><path d="m7.28125 2.800781c-.089844 0-.179688.007813-.269531.019531-.015625 0-.03125.003907-.046875.003907-.003906.003906-.011719.003906-.015625.003906-.007813 0-.015625.003906-.023438.003906-.902343.152344-1.601562.878907-1.710937 1.792969-.003906.015625-.003906.03125-.003906.042969-.011719.089843-.015626.175781-.011719.261719v21.121093.007813c-.011719.371094.078125.75.277343 1.09375.578126.996094 1.84375 1.335937 2.839844.761718l18.332032-10.585937c.679687-.390625 1.054687-1.101563 1.042968-1.828125.011719-.730469-.363281-1.441406-1.042968-1.832031l-18.25-10.539063c-.226563-.144531-.488282-.25-.765626-.296875-.011718 0-.027343-.003906-.042968-.007812-.101563-.015625-.207032-.023438-.308594-.023438zm0 .1875c.09375 0 .1875.007813.28125.023438.011719 0 .027344.003906.039062.007812.253907.042969.488282.136719.695313.269531h.003906l18.253907 10.539063c.621093.359375.957031 1.003906.949218 1.667969v.003906c.007813.664062-.328125 1.308594-.949218 1.667969l-18.332032 10.582031c-.90625.527344-2.058594.21875-2.582031-.691406-.183594-.3125-.261719-.65625-.253906-.992188v-.003906c0-.007812 0-.011719 0-.011719v-21.125c-.003907-.078125 0-.15625.007812-.238281.003907-.011719.003907-.023438.003907-.039062.101562-.832032.738281-1.492188 1.558593-1.632813.007813 0 .011719 0 .019531-.003906h.019532c.011718-.003907.027344-.003907.039062-.007813.082032-.007812.164063-.015625.246094-.015625zm0 0" fill="#212121"/><path d="m10.914062 10.113281c-.40625 0-.738281.386719-.738281.863281v7.363282c-.230469-.066406-.476562-.101563-.738281-.101563-1.226562 0-2.214844.820313-2.214844 1.84375 0 1.023438.988282 1.847657 2.214844 1.847657s2.214844-.824219 2.214844-1.847657v-8.121093c0-.203126.164062-.367188.371094-.367188h3.691406c.203125 0 .367187.164062.367187.367188v4.164062c-.230469-.066406-.476562-.101562-.738281-.101562-1.226562 0-2.214844.820312-2.214844 1.84375 0 1.023437.988282 1.847656 2.214844 1.847656 1.230469 0 2.214844-.824219 2.214844-1.847656v-6.890626c0-.476562-.328125-.863281-.738282-.863281zm0 0" fill="url(#g)"/><path d="m10.914062 10.113281c-.40625 0-.738281.386719-.738281.863281v.328126c0-.476563.332031-.859376.738281-.859376h5.90625c.410157 0 .738282.382813.738282.859376v-.328126c0-.476562-.328125-.863281-.738282-.863281zm4.429688 5.910157c-1.226562 0-2.214844.820312-2.214844 1.84375 0 .054687.003906.113281.011719.167968.097656-.945312 1.042969-1.683594 2.203125-1.683594.261719 0 .507812.039063.738281.105469v-.332031c-.230469-.066406-.476562-.101562-.738281-.101562zm-5.90625 2.214843c-1.226562 0-2.214844.820313-2.214844 1.84375 0 .058594.003906.113281.007813.167969.101562-.945312 1.046875-1.683594 2.207031-1.683594.261719 0 .507812.039063.738281.105469v-.332031c-.230469-.066406-.476562-.101563-.738281-.101563zm0 0" fill="#fff" fill-opacity=".392157"/><path d="m12.023438 11.59375c-.207032 0-.371094.164062-.371094.367188v.496093c0-.203125.164062-.367187.371094-.367187h3.691406c.203125 0 .367187.164062.367187.367187v-.496093c0-.203126-.164062-.367188-.367187-.367188zm5.535156 6.273438c0 1.023437-.984375 1.847656-2.214844 1.847656-1.125 0-2.050781-.695313-2.195312-1.597656-.011719.078124-.019532.164062-.019532.246093 0 1.023438.988282 1.847657 2.214844 1.847657 1.230469 0 2.214844-.824219 2.214844-1.847657zm-5.90625 2.214843c0 1.023438-.988282 1.847657-2.214844 1.847657-1.125 0-2.050781-.695313-2.195312-1.597657-.011719.082031-.019532.164063-.019532.246094 0 1.023437.988282 1.847656 2.214844 1.847656s2.214844-.824219 2.214844-1.847656zm0 0" fill-opacity=".235294"/><path d="m174.608326-53.202951c-6.49938 0-11.811372 6.186909-11.811372 13.811181v117.801251c-3.687148-1.062399-7.624272-1.624845-11.811372-1.624845-19.623126 0-35.434117 13.123747-35.434117 29.497183 0 16.373437 15.810991 29.559677 35.434117 29.559677s35.434116-13.18624 35.434116-29.559677v-129.925093c0-3.249689 2.624749-5.874439 5.936933-5.874439h59.05686c3.24969 0 5.874439 2.62475 5.874439 5.874439v66.618639c-3.687148-1.062399-7.624272-1.624845-11.811372-1.624845-19.623126 0-35.434116 13.123746-35.434116 29.497183 0 16.373436 15.81099 29.559677 35.434116 29.559677 19.68562 0 35.434116-13.186241 35.434116-29.559677v-110.239473c0-7.624272-5.249498-13.811181-11.811372-13.811181zm0 0" fill="none" stroke="#212121" stroke-linecap="round" stroke-width="3" transform="matrix(.062506 0 0 .062506 0 13.438783)"/></svg>

<?xml version="1.0" encoding="UTF-8"?>
<svg xmlns="http://www.w3.org/2000/svg" xmlns:xlink="http://www.w3.org/1999/xlink" width="32pt" height="32pt" viewBox="0 0 32 32" version="1.1">
<defs>
<radialGradient id="radial0" gradientUnits="userSpaceOnUse" cx="450.90894" cy="189.57936" fx="450.90894" fy="189.57936" r="21.166656" gradientTransform="matrix(0.00000017417,-0.0781325,-0.140638,-0.000000101539,33.277288,63.595334)">
<stop offset="0" style="stop-color:rgb(0%,0%,0%);stop-opacity:0.313725;"/>
<stop offset="0.222222" style="stop-color:rgb(0%,0%,0%);stop-opacity:0.27451;"/>
<stop offset="1" style="stop-color:rgb(0%,0%,0%);stop-opacity:0;"/>
</radialGradient>
<radialGradient id="radial1" gradientUnits="userSpaceOnUse" cx="450.90894" cy="189.57936" fx="450.90894" fy="189.57936" r="21.166656" gradientTransform="matrix(-0.00000017417,0.0781325,0.140638,0.000000101539,-19.385332,-7.527479)">
<stop offset="0" style="stop-color:rgb(0%,0%,0%);stop-opacity:0.313725;"/>
<stop offset="0.222222" style="stop-color:rgb(0%,0%,0%);stop-opacity:0.27451;"/>
<stop offset="1" style="stop-color:rgb(0%,0%,0%);stop-opacity:0;"/>
</radialGradient>
<radialGradient id="radial2" gradientUnits="userSpaceOnUse" cx="450.90894" cy="189.57936" fx="450.90894" fy="189.57936" r="21.166656" gradientTransform="matrix(-0.00000017417,-0.0781325,0.140638,-0.000000101539,-19.385332,63.595334)">
<stop offset="0" style="stop-color:rgb(0%,0%,0%);stop-opacity:0.313725;"/>
<stop offset="0.222222" style="stop-color:rgb(0%,0%,0%);stop-opacity:0.27451;"/>
<stop offset="1" style="stop-color:rgb(0%,0%,0%);stop-opacity:0;"/>
</radialGradient>
<radialGradient id="radial3" gradientUnits="userSpaceOnUse" cx="450.90894" cy="189.57936" fx="450.90894" fy="189.57936" r="21.166656" gradientTransform="matrix(0.00000017417,0.0781325,-0.140638,0.000000101539,33.277286,-7.527479)">
<stop offset="0" style="stop-color:rgb(0%,0%,0%);stop-opacity:0.313725;"/>
<stop offset="0.222222" style="stop-color:rgb(0%,0%,0%);stop-opacity:0.27451;"/>
<stop offset="1" style="stop-color:rgb(0%,0%,0%);stop-opacity:0;"/>
</radialGradient>
<linearGradient id="linear0" gradientUnits="userSpaceOnUse" x1="254" y1="233.5" x2="254" y2="-168.66667" gradientTransform="matrix(0.062506,0,0,0.062506,0,13.438783)">
<stop offset="0" style="stop-color:rgb(61.176471%,80%,39.607843%);stop-opacity:1;"/>
<stop offset="1" style="stop-color:rgb(68.235294%,83.529412%,50.588235%);stop-opacity:1;"/>
</linearGradient>
<linearGradient id="linear1" gradientUnits="userSpaceOnUse" x1="981.43005" y1="1457.5077" x2="981.43005" y2="815.11719" gradientTransform="matrix(0.0184591,0,0,0.0184591,-5.328932,-4.931146)">
<stop offset="0" style="stop-color:rgb(25.882353%,25.882353%,25.882353%);stop-opacity:1;"/>
<stop offset="1" style="stop-color:rgb(38.039216%,38.039216%,38.039216%);stop-opacity:1;"/>
</linearGradient>
</defs>
<g id="surface1">
<path style=" stroke:none;fill-rule:nonzero;fill:url(#radial0);" d="M 6.945312 28.035156 L 9.59375 28.035156 L 9.59375 26.710938 L 6.945312 26.710938 Z M 6.945312 28.035156 "/>
<path style=" stroke:none;fill-rule:nonzero;fill:url(#radial1);" d="M 6.945312 28.035156 L 4.300781 28.035156 L 4.300781 29.355469 L 6.945312 29.355469 Z M 6.945312 28.035156 "/>
<path style=" stroke:none;fill-rule:nonzero;fill:url(#radial2);" d="M 6.945312 28.035156 L 4.300781 28.035156 L 4.300781 26.710938 L 6.945312 26.710938 Z M 6.945312 28.035156 "/>
<path style=" stroke:none;fill-rule:nonzero;fill:url(#radial3);" d="M 6.945312 28.035156 L 9.59375 28.035156 L 9.59375 29.355469 L 6.945312 29.355469 Z M 6.945312 28.035156 "/>
<path style=" stroke:none;fill-rule:nonzero;fill:url(#linear0);" d="M 7.28125 2.894531 C 7.195312 2.894531 7.109375 2.902344 7.023438 2.910156 C 7.007812 2.914062 6.996094 2.914062 6.980469 2.917969 C 6.976562 2.917969 6.96875 2.917969 6.960938 2.921875 C 6.957031 2.921875 6.949219 2.921875 6.941406 2.925781 C 6.082031 3.070312 5.414062 3.765625 5.308594 4.636719 C 5.304688 4.652344 5.304688 4.664062 5.300781 4.679688 C 5.292969 4.761719 5.289062 4.847656 5.292969 4.929688 L 5.292969 26.050781 C 5.292969 26.054688 5.292969 26.058594 5.292969 26.0625 C 5.28125 26.414062 5.367188 26.777344 5.558594 27.105469 C 6.109375 28.058594 7.316406 28.382812 8.269531 27.832031 L 26.601562 17.25 C 27.25 16.875 27.609375 16.195312 27.597656 15.496094 C 27.609375 14.800781 27.25 14.121094 26.601562 13.746094 L 8.347656 3.207031 C 8.132812 3.070312 7.882812 2.972656 7.617188 2.925781 C 7.605469 2.921875 7.589844 2.921875 7.574219 2.917969 C 7.476562 2.902344 7.378906 2.894531 7.28125 2.894531 Z M 7.28125 2.894531 "/>
<path style=" stroke:none;fill-rule:nonzero;fill:rgb(100%,100%,100%);fill-opacity:0.392157;" d="M 7.28125 2.894531 C 7.195312 2.894531 7.109375 2.902344 7.023438 2.910156 C 7.007812 2.914062 6.996094 2.914062 6.980469 2.917969 C 6.976562 2.917969 6.96875 2.917969 6.960938 2.921875 C 6.957031 2.921875 6.949219 2.921875 6.941406 2.925781 C 6.082031 3.070312 5.414062 3.765625 5.308594 4.636719 C 5.304688 4.652344 5.304688 4.664062 5.300781 4.679688 C 5.292969 4.761719 5.289062 4.847656 5.292969 4.929688 L 5.292969 5.179688 C 5.292969 5.121094 5.296875 5.066406 5.300781 5.011719 C 5.304688 4.996094 5.304688 4.984375 5.308594 4.96875 C 5.414062 4.09375 6.082031 3.402344 6.941406 3.253906 C 6.949219 3.253906 6.957031 3.253906 6.960938 3.253906 C 6.96875 3.25 6.976562 3.25 6.980469 3.25 C 6.996094 3.246094 7.007812 3.246094 7.023438 3.242188 C 7.109375 3.230469 7.195312 3.226562 7.28125 3.226562 C 7.378906 3.226562 7.476562 3.234375 7.574219 3.25 C 7.589844 3.25 7.605469 3.253906 7.617188 3.257812 C 7.882812 3.300781 8.132812 3.398438 8.347656 3.539062 L 26.601562 14.078125 C 27.199219 14.421875 27.550781 15.027344 27.59375 15.664062 C 27.59375 15.609375 27.597656 15.554688 27.597656 15.496094 C 27.609375 14.800781 27.25 14.121094 26.601562 13.746094 L 8.347656 3.207031 C 8.132812 3.070312 7.882812 2.972656 7.617188 2.925781 C 7.605469 2.921875 7.589844 2.921875 7.574219 2.917969 C 7.476562 2.902344 7.378906 2.894531 7.28125 2.894531 Z M 5.292969 26.078125 C 5.292969 26.101562 5.292969 26.125 5.292969 26.148438 Z M 5.292969 26.078125 "/>
<path style=" stroke:none;fill-rule:nonzero;fill:rgb(0%,0%,0%);fill-opacity:0.235294;" d="M 5.292969 4.847656 C 5.292969 4.875 5.292969 4.902344 5.292969 4.929688 Z M 27.578125 15.199219 C 27.5 15.785156 27.15625 16.332031 26.601562 16.652344 L 8.269531 27.234375 C 7.316406 27.785156 6.109375 27.460938 5.558594 26.507812 C 5.382812 26.207031 5.296875 25.875 5.292969 25.550781 L 5.292969 26.050781 C 5.292969 26.054688 5.292969 26.058594 5.292969 26.0625 C 5.28125 26.414062 5.367188 26.777344 5.558594 27.105469 C 6.109375 28.058594 7.316406 28.382812 8.269531 27.832031 L 26.601562 17.25 C 27.25 16.875 27.609375 16.195312 27.597656 15.496094 C 27.597656 15.398438 27.59375 15.296875 27.578125 15.199219 Z M 5.292969 25.453125 L 5.292969 25.480469 C 5.292969 25.476562 5.292969 25.472656 5.292969 25.464844 C 5.292969 25.460938 5.292969 25.457031 5.292969 25.453125 Z M 5.292969 25.453125 "/>
<path style=" stroke:none;fill-rule:nonzero;fill:rgb(12.941176%,12.941176%,12.941176%);fill-opacity:1;" d="M 7.28125 2.800781 C 7.191406 2.800781 7.101562 2.808594 7.011719 2.820312 C 6.996094 2.820312 6.980469 2.824219 6.964844 2.824219 C 6.960938 2.828125 6.953125 2.828125 6.949219 2.828125 C 6.941406 2.828125 6.933594 2.832031 6.925781 2.832031 C 6.023438 2.984375 5.324219 3.710938 5.214844 4.625 C 5.210938 4.640625 5.210938 4.65625 5.210938 4.667969 C 5.199219 4.757812 5.195312 4.84375 5.199219 4.929688 L 5.199219 26.050781 C 5.199219 26.054688 5.199219 26.058594 5.199219 26.058594 C 5.1875 26.429688 5.277344 26.808594 5.476562 27.152344 C 6.054688 28.148438 7.320312 28.488281 8.316406 27.914062 L 26.648438 17.328125 C 27.328125 16.9375 27.703125 16.226562 27.691406 15.5 C 27.703125 14.769531 27.328125 14.058594 26.648438 13.667969 L 8.398438 3.128906 C 8.171875 2.984375 7.910156 2.878906 7.632812 2.832031 C 7.621094 2.832031 7.605469 2.828125 7.589844 2.824219 C 7.488281 2.808594 7.382812 2.800781 7.28125 2.800781 Z M 7.28125 2.988281 C 7.375 2.988281 7.46875 2.996094 7.5625 3.011719 C 7.574219 3.011719 7.589844 3.015625 7.601562 3.019531 C 7.855469 3.0625 8.089844 3.15625 8.296875 3.289062 L 8.300781 3.289062 L 26.554688 13.828125 C 27.175781 14.1875 27.511719 14.832031 27.503906 15.496094 L 27.503906 15.5 C 27.511719 16.164062 27.175781 16.808594 26.554688 17.167969 L 8.222656 27.75 C 7.316406 28.277344 6.164062 27.96875 5.640625 27.058594 C 5.457031 26.746094 5.378906 26.402344 5.386719 26.066406 L 5.386719 26.0625 C 5.386719 26.054688 5.386719 26.050781 5.386719 26.050781 L 5.386719 4.925781 C 5.382812 4.847656 5.386719 4.769531 5.394531 4.6875 C 5.398438 4.675781 5.398438 4.664062 5.398438 4.648438 C 5.5 3.816406 6.136719 3.15625 6.957031 3.015625 C 6.964844 3.015625 6.96875 3.015625 6.976562 3.011719 C 6.984375 3.011719 6.988281 3.011719 6.996094 3.011719 C 7.007812 3.007812 7.023438 3.007812 7.035156 3.003906 C 7.117188 2.996094 7.199219 2.988281 7.28125 2.988281 Z M 7.28125 2.988281 "/>
<path style=" stroke:none;fill-rule:nonzero;fill:url(#linear1);" d="M 10.914062 10.113281 C 10.507812 10.113281 10.175781 10.5 10.175781 10.976562 L 10.175781 18.339844 C 9.945312 18.273438 9.699219 18.238281 9.4375 18.238281 C 8.210938 18.238281 7.222656 19.058594 7.222656 20.082031 C 7.222656 21.105469 8.210938 21.929688 9.4375 21.929688 C 10.664062 21.929688 11.652344 21.105469 11.652344 20.082031 L 11.652344 11.960938 C 11.652344 11.757812 11.816406 11.59375 12.023438 11.59375 L 15.714844 11.59375 C 15.917969 11.59375 16.082031 11.757812 16.082031 11.960938 L 16.082031 16.125 C 15.851562 16.058594 15.605469 16.023438 15.34375 16.023438 C 14.117188 16.023438 13.128906 16.84375 13.128906 17.867188 C 13.128906 18.890625 14.117188 19.714844 15.34375 19.714844 C 16.574219 19.714844 17.558594 18.890625 17.558594 17.867188 L 17.558594 10.976562 C 17.558594 10.5 17.230469 10.113281 16.820312 10.113281 Z M 10.914062 10.113281 "/>
<path style=" stroke:none;fill-rule:nonzero;fill:rgb(100%,100%,100%);fill-opacity:0.392157;" d="M 10.914062 10.113281 C 10.507812 10.113281 10.175781 10.5 10.175781 10.976562 L 10.175781 11.304688 C 10.175781 10.828125 10.507812 10.445312 10.914062 10.445312 L 16.820312 10.445312 C 17.230469 10.445312 17.558594 10.828125 17.558594 11.304688 L 17.558594 10.976562 C 17.558594 10.5 17.230469 10.113281 16.820312 10.113281 Z M 15.34375 16.023438 C 14.117188 16.023438 13.128906 16.84375 13.128906 17.867188 C 13.128906 17.921875 13.132812 17.980469 13.140625 18.035156 C 13.238281 17.089844 14.183594 16.351562 15.34375 16.351562 C 15.605469 16.351562 15.851562 16.390625 16.082031 16.457031 L 16.082031 16.125 C 15.851562 16.058594 15.605469 16.023438 15.34375 16.023438 Z M 9.4375 18.238281 C 8.210938 18.238281 7.222656 19.058594 7.222656 20.082031 C 7.222656 20.140625 7.226562 20.195312 7.230469 20.25 C 7.332031 19.304688 8.277344 18.566406 9.4375 18.566406 C 9.699219 18.566406 9.945312 18.605469 10.175781 18.671875 L 10.175781 18.339844 C 9.945312 18.273438 9.699219 18.238281 9.4375 18.238281 Z M 9.4375 18.238281 "/>
<path style=" stroke:none;fill-rule:nonzero;fill:rgb(0%,0%,0%);fill-opacity:0.235294;" d="M 12.023438 11.59375 C 11.816406 11.59375 11.652344 11.757812 11.652344 11.960938 L 11.652344 12.457031 C 11.652344 12.253906 11.816406 12.089844 12.023438 12.089844 L 15.714844 12.089844 C 15.917969 12.089844 16.082031 12.253906 16.082031 12.457031 L 16.082031 11.960938 C 16.082031 11.757812 15.917969 11.59375 15.714844 11.59375 Z M 17.558594 17.867188 C 17.558594 18.890625 16.574219 19.714844 15.34375 19.714844 C 14.21875 19.714844 13.292969 19.019531 13.148438 18.117188 C 13.136719 18.195312 13.128906 18.28125 13.128906 18.363281 C 13.128906 19.386719 14.117188 20.210938 15.34375 20.210938 C 16.574219 20.210938 17.558594 19.386719 17.558594 18.363281 Z M 11.652344 20.082031 C 11.652344 21.105469 10.664062 21.929688 9.4375 21.929688 C 8.3125 21.929688 7.386719 21.234375 7.242188 20.332031 C 7.230469 20.414062 7.222656 20.496094 7.222656 20.578125 C 7.222656 21.601562 8.210938 22.425781 9.4375 22.425781 C 10.664062 22.425781 11.652344 21.601562 11.652344 20.578125 Z M 11.652344 20.082031 "/>
<path style="fill:none;stroke-width:3;stroke-linecap:round;stroke-linejoin:miter;stroke:rgb(12.941176%,12.941176%,12.941176%);stroke-opacity:1;stroke-miterlimit:4;" d="M 174.608326 -53.202951 C 168.108946 -53.202951 162.796954 -47.016042 162.796954 -39.39177 L 162.796954 78.409481 C 159.109806 77.347082 155.172682 76.784636 150.985582 76.784636 C 131.362456 76.784636 115.551465 89.908383 115.551465 106.281819 C 115.551465 122.655256 131.362456 135.841496 150.985582 135.841496 C 170.608708 135.841496 186.419698 122.655256 186.419698 106.281819 L 186.419698 -23.643274 C 186.419698 -26.892963 189.044447 -29.517713 192.356631 -29.517713 L 251.413491 -29.517713 C 254.663181 -29.517713 257.28793 -26.892963 257.28793 -23.643274 L 257.28793 42.975365 C 253.600782 41.912966 249.663658 41.35052 245.476558 41.35052 C 225.853432 41.35052 210.042442 54.474266 210.042442 70.847703 C 210.042442 87.221139 225.853432 100.40738 245.476558 100.40738 C 265.162178 100.40738 280.910674 87.221139 280.910674 70.847703 L 280.910674 -39.39177 C 280.910674 -47.016042 275.661176 -53.202951 269.099302 -53.202951 Z M 174.608326 -53.202951 " transform="matrix(0.062506,0,0,0.062506,0,13.438783)"/>
</g>
</svg>
